<?xml version="1.0" encoding="UTF-8"?>
<map version="1.10" tiledversion="1.10.2" orientation="orthogonal" renderorder="right-down" width="18" height="18" tilewidth="32" tileheight="32" infinite="1" nextlayerid="11" nextobjectid="121">
 <tileset firstgid="1" source="../Ruins/New Tilesets.tsx"/>
 <tileset firstgid="199" name="Tileset_PhantomKeys_Outside-Sheet" tilewidth="32" tileheight="32" tilecount="49" columns="7">
  <image source="Tileset_PhantomKeys_Outside-Sheet.png" trans="b5ebff" width="224" height="224"/>
 </tileset>
 <group id="4" name="Floor Plan">
  <layer id="1" name="Layout" width="18" height="18">
   <data encoding="csv">
    <chunk x="-208" y="0" width="16" height="16">
0,0,0,0,0,0,0,0,0,0,0,0,0,207,207,207,
0,0,0,0,0,0,0,0,0,0,0,0,0,207,207,207,
0,0,0,0,0,0,0,0,0,0,0,0,0,207,207,207,
0,0,0,0,0,0,0,0,0,0,0,0,0,207,207,207,
0,0,0,0,0,0,0,0,0,0,0,0,0,207,207,207,
0,0,0,0,0,0,0,0,0,0,0,0,0,207,207,207,
0,0,0,0,0,0,0,0,0,0,0,0,0,207,207,207,
0,0,0,0,0,0,0,0,0,0,0,0,0,207,207,207,
0,0,0,0,0,0,0,0,0,0,0,0,0,0,0,0,
0,0,0,0,0,0,0,0,0,0,0,0,0,0,0,0,
0,0,0,0,0,0,0,0,0,0,0,0,0,0,0,0,
0,0,0,0,0,0,0,0,0,0,0,0,0,0,0,0,
0,0,0,0,0,0,0,0,0,0,0,0,0,0,0,0,
0,0,0,0,0,0,0,0,0,0,0,0,0,0,0,0,
0,0,0,0,0,0,0,0,0,0,0,0,0,0,0,0,
0,0,0,0,0,0,0,0,0,0,0,0,0,0,0,0
</chunk>
    <chunk x="-192" y="0" width="16" height="16">
207,207,207,207,207,207,207,207,0,0,0,0,0,0,0,0,
207,207,207,207,207,207,207,207,0,0,0,0,0,0,0,0,
207,207,207,207,207,207,207,207,0,0,0,0,0,0,0,0,
207,207,207,207,207,207,207,207,207,207,207,207,207,207,207,207,
207,207,207,207,207,207,207,207,207,207,207,207,207,207,207,207,
207,207,207,207,207,207,207,207,207,207,207,207,207,207,207,207,
207,207,207,207,207,207,207,207,207,207,207,207,207,207,207,207,
207,207,207,207,207,207,207,207,207,207,207,207,207,207,207,207,
0,0,0,0,0,0,0,0,0,0,0,0,0,0,0,0,
0,0,0,0,0,0,0,0,0,0,0,0,0,0,0,0,
0,0,0,0,0,0,0,0,0,0,0,0,0,0,0,0,
0,0,0,0,0,0,0,0,0,0,0,0,0,0,0,0,
0,0,0,0,0,0,0,0,0,0,0,0,0,0,0,0,
0,0,0,0,0,0,0,0,0,0,0,0,0,0,0,0,
0,0,0,0,0,0,0,0,0,0,0,0,0,0,0,0,
0,0,0,0,0,0,0,0,0,0,0,0,0,0,0,0
</chunk>
    <chunk x="-176" y="0" width="16" height="16">
0,0,0,0,0,0,0,0,0,0,0,0,0,0,0,0,
0,0,0,0,0,0,0,0,0,0,0,0,0,0,0,0,
0,0,0,0,0,0,0,0,0,0,0,0,0,0,0,0,
207,207,207,207,207,207,207,207,207,207,207,207,207,0,0,0,
207,207,207,207,207,207,207,207,207,207,207,207,207,0,0,0,
207,207,207,207,207,207,207,207,207,207,207,207,207,0,0,0,
207,207,207,207,207,207,207,207,207,207,207,207,207,0,0,0,
207,207,207,207,207,207,207,207,207,207,207,207,207,0,0,0,
0,0,0,0,0,0,207,207,207,207,207,207,207,0,0,0,
0,0,0,0,0,0,207,207,207,207,207,207,207,0,0,0,
0,0,0,0,0,0,207,207,207,207,207,207,207,0,0,0,
0,0,0,0,0,0,207,207,207,207,207,207,207,0,0,0,
0,0,0,0,0,0,207,207,207,207,207,207,207,0,0,0,
0,0,0,0,0,0,207,207,207,207,207,207,207,0,0,0,
0,0,0,0,0,0,207,207,207,207,207,207,207,0,0,0,
0,0,0,0,0,0,207,207,207,207,207,207,207,0,0,0
</chunk>
    <chunk x="0" y="0" width="16" height="16">
0,0,0,0,207,207,207,207,207,207,207,207,0,0,0,0,
0,0,0,0,207,207,207,207,207,207,207,207,0,0,0,0,
0,0,0,0,207,207,207,207,207,207,207,207,0,0,0,0,
0,0,0,0,207,207,207,207,207,207,207,207,0,0,0,0,
0,0,0,0,207,207,207,207,207,207,207,207,0,0,0,0,
0,0,0,0,207,207,207,207,207,207,207,207,0,0,0,0,
0,0,0,0,207,207,207,207,207,207,207,207,0,0,0,0,
0,0,0,0,207,207,207,207,207,207,207,207,0,0,0,0,
0,0,0,0,207,207,207,207,207,207,207,207,0,0,0,0,
0,0,0,0,207,207,207,207,207,207,207,207,0,0,0,0,
0,0,0,0,207,207,207,207,207,207,207,207,0,0,0,0,
0,0,0,0,207,207,207,207,207,207,207,207,0,0,0,0,
0,0,0,0,207,207,207,207,207,207,207,207,0,0,0,0,
0,0,0,0,207,207,207,207,207,207,207,207,0,0,0,0,
0,0,0,0,207,207,207,207,207,207,207,207,0,0,0,0,
0,0,0,0,207,207,207,207,207,207,207,207,0,0,0,0
</chunk>
    <chunk x="-224" y="16" width="16" height="16">
0,0,0,0,0,0,0,0,0,0,0,0,0,0,0,0,
0,0,0,0,0,0,0,0,0,0,0,0,0,0,0,0,
0,0,0,0,0,0,0,0,0,0,0,0,0,0,0,0,
0,0,0,0,207,207,207,207,207,207,207,207,207,207,207,207,
0,0,0,0,207,207,207,207,207,207,207,207,207,207,207,207,
0,0,0,0,207,207,207,207,207,207,207,207,207,207,207,207,
0,0,0,0,207,207,207,207,207,207,207,207,207,207,207,207,
0,0,0,0,207,207,207,207,207,207,207,207,207,207,207,207,
0,0,0,0,207,207,207,207,207,207,207,207,207,207,207,207,
0,0,0,0,207,207,207,207,207,207,207,207,207,207,207,207,
0,0,0,0,207,207,207,207,207,207,207,207,207,207,207,207,
0,0,0,0,207,207,207,207,207,207,207,207,207,207,207,207,
0,0,0,0,207,207,207,207,207,207,207,207,207,207,207,207,
0,0,0,0,207,207,207,207,207,207,207,207,207,207,207,207,
0,0,0,0,207,207,207,207,207,207,207,207,207,207,207,207,
0,0,0,0,207,207,207,207,207,207,207,207,207,207,207,207
</chunk>
    <chunk x="-208" y="16" width="16" height="16">
0,0,0,0,0,0,0,0,0,0,0,0,0,0,0,0,
0,0,0,0,0,0,0,0,0,0,0,0,0,0,0,0,
0,0,0,0,0,0,0,0,0,0,0,0,0,0,0,0,
207,207,207,207,207,207,207,207,207,207,207,207,207,207,207,0,
207,207,207,207,207,207,207,207,207,207,207,207,207,207,207,0,
207,207,207,207,207,207,207,207,207,207,207,207,207,207,207,0,
207,207,207,207,207,207,207,207,207,207,207,207,207,207,207,0,
207,207,207,207,207,207,207,207,207,207,207,207,207,207,207,0,
207,207,207,207,207,207,207,207,207,207,207,207,207,207,207,0,
207,207,207,207,207,207,207,207,207,207,207,207,207,207,207,0,
207,207,207,207,207,207,207,207,207,207,207,207,207,207,207,0,
207,207,207,207,207,207,207,207,207,207,207,207,207,207,207,0,
207,207,207,207,207,207,207,207,207,207,207,207,207,207,207,0,
207,207,207,207,207,207,207,207,207,207,207,207,207,207,207,0,
207,207,207,207,207,207,207,207,207,207,207,207,207,207,207,0,
207,207,207,207,207,207,207,207,207,207,207,207,207,207,207,0
</chunk>
    <chunk x="-192" y="16" width="16" height="16">
0,0,0,0,0,0,0,0,0,0,0,0,0,0,0,0,
0,0,0,0,0,0,0,0,0,0,0,0,0,0,0,0,
0,0,0,0,0,0,0,0,0,0,0,0,0,0,0,0,
0,0,0,207,207,207,207,207,207,207,207,207,207,207,207,207,
0,0,0,207,207,207,207,207,207,207,207,207,207,207,207,207,
0,0,0,207,207,207,207,207,207,207,207,207,207,207,207,207,
0,0,0,207,207,207,207,207,207,207,207,207,207,207,207,207,
0,0,0,207,207,207,207,207,207,207,207,207,207,207,207,207,
0,0,0,207,207,207,207,207,207,207,207,207,207,207,207,207,
0,0,0,207,207,207,207,207,207,207,207,207,207,207,207,207,
0,0,0,207,207,207,207,207,207,207,207,207,207,207,207,207,
0,0,0,207,207,207,207,207,207,207,207,207,207,207,207,207,
0,0,0,207,207,207,207,207,207,207,207,207,207,207,207,207,
0,0,0,207,207,207,207,207,207,207,207,207,207,207,207,207,
0,0,0,207,207,207,207,207,207,207,207,207,207,207,207,207,
0,0,0,207,207,207,207,207,207,207,207,207,207,207,207,207
</chunk>
    <chunk x="-176" y="16" width="16" height="16">
0,0,0,0,0,0,207,207,207,207,207,207,207,0,0,0,
0,0,0,0,0,0,207,207,207,207,207,207,207,0,0,0,
0,0,0,0,0,0,0,0,0,0,0,0,0,0,0,0,
207,207,207,207,207,207,207,207,207,207,207,207,207,207,207,207,
207,207,207,207,207,207,207,207,207,207,207,207,207,207,207,207,
207,207,207,207,207,207,207,207,207,207,207,207,207,207,207,207,
207,207,207,207,207,207,207,207,207,207,207,207,207,207,207,207,
207,207,207,207,207,207,207,207,207,207,207,207,207,207,207,207,
207,207,207,207,207,207,207,207,207,207,207,207,207,207,207,207,
207,207,207,207,207,207,207,207,207,207,207,207,207,207,207,207,
207,207,207,207,207,207,207,207,207,207,207,207,207,207,207,207,
207,207,207,207,207,207,207,207,207,207,207,207,207,207,207,207,
207,207,207,207,207,207,207,207,207,207,207,207,207,207,207,207,
207,207,207,207,207,207,207,207,207,207,207,207,207,207,207,207,
207,207,207,207,207,207,207,207,207,207,207,207,207,207,207,207,
207,207,207,207,207,207,207,207,207,207,207,207,207,207,207,207
</chunk>
    <chunk x="-160" y="16" width="16" height="16">
0,0,0,0,0,0,0,0,0,0,0,0,0,0,0,0,
0,0,0,0,0,0,0,0,0,0,0,0,0,0,0,0,
0,0,0,0,0,0,0,0,0,0,0,0,0,0,0,0,
207,207,207,207,207,207,207,207,207,207,207,0,0,0,0,0,
207,207,207,207,207,207,207,207,207,207,207,0,0,0,0,0,
207,207,207,207,207,207,207,207,207,207,207,0,0,0,0,0,
207,207,207,207,207,207,207,207,207,207,207,0,0,0,0,0,
207,207,207,207,207,207,207,207,207,207,207,207,207,207,207,207,
207,207,207,207,207,207,207,207,207,207,207,207,207,207,207,207,
207,207,207,207,207,207,207,207,207,207,207,207,207,207,207,207,
207,207,207,207,207,207,207,207,207,207,207,207,207,207,207,207,
207,207,207,207,207,207,207,207,207,207,207,207,207,207,207,207,
207,207,207,207,207,207,207,207,207,207,207,207,207,207,207,207,
207,207,207,207,207,207,207,207,207,207,207,0,0,0,0,0,
207,207,207,207,207,207,207,207,207,207,207,0,0,0,0,0,
207,207,207,207,207,207,207,207,207,207,207,0,0,0,0,0
</chunk>
    <chunk x="-144" y="16" width="16" height="16">
0,0,0,0,0,0,0,0,0,0,0,0,0,0,0,0,
0,0,0,0,0,0,0,0,0,0,0,0,0,0,0,0,
0,0,0,0,0,0,0,0,0,0,0,0,0,0,0,0,
0,0,0,0,0,0,0,0,0,0,0,0,0,0,0,0,
0,0,0,0,0,0,0,0,0,0,0,0,0,0,0,0,
0,0,0,0,0,0,0,0,0,0,0,0,0,0,0,0,
0,0,0,0,0,0,0,0,0,0,0,0,0,0,0,0,
207,207,207,207,207,207,207,207,207,207,207,207,207,207,207,207,
207,207,207,207,207,207,207,207,207,207,207,207,207,207,207,207,
207,207,207,207,207,207,207,207,207,207,207,207,207,207,207,207,
207,207,207,207,207,207,207,207,207,207,207,207,207,207,207,207,
207,207,207,207,207,207,207,207,207,207,207,207,207,207,207,207,
207,207,207,207,207,207,207,207,207,207,207,207,207,207,207,207,
0,0,0,0,0,0,0,0,0,0,0,0,0,207,207,207,
0,0,0,0,0,0,0,0,0,0,0,0,0,207,207,207,
0,0,0,0,0,0,0,0,0,0,0,0,0,207,207,207
</chunk>
    <chunk x="-128" y="16" width="16" height="16">
0,0,0,0,0,0,0,0,0,0,0,0,0,0,0,0,
0,0,0,0,0,0,0,0,0,0,0,0,0,0,0,0,
0,0,0,0,0,0,0,0,0,0,0,0,0,0,0,0,
0,0,0,0,0,0,0,0,0,0,0,0,0,0,0,0,
0,0,0,0,0,0,0,0,0,0,0,0,0,0,0,0,
0,0,0,0,0,0,0,0,0,0,0,0,0,0,0,0,
0,0,0,0,0,0,0,0,0,0,0,0,0,0,0,0,
207,207,207,0,0,0,0,0,0,0,0,0,0,0,0,0,
207,207,207,0,0,0,0,0,0,0,0,0,0,0,0,0,
207,207,207,0,0,0,0,0,0,0,0,0,0,0,0,0,
207,207,207,0,0,0,0,0,0,0,0,0,0,0,0,0,
207,207,207,0,0,0,0,0,0,0,0,0,0,0,0,0,
207,207,207,0,0,0,0,0,0,0,0,0,0,0,0,0,
207,207,207,0,0,0,0,0,0,0,0,0,0,0,0,0,
207,207,207,0,0,0,0,0,0,0,0,0,0,0,0,0,
207,207,207,0,0,0,0,0,0,0,0,0,0,0,0,0
</chunk>
    <chunk x="-32" y="16" width="16" height="16">
0,0,0,0,0,0,0,0,0,0,0,0,0,0,0,0,
0,0,0,0,0,0,0,0,0,0,0,0,0,0,0,0,
0,0,0,0,0,0,0,0,0,0,0,0,0,0,0,0,
0,0,0,0,0,0,0,0,0,0,0,0,0,0,0,0,
0,0,0,0,0,0,207,207,207,207,207,207,207,207,207,207,
0,0,0,0,0,0,207,207,207,207,207,207,207,207,207,207,
0,0,0,0,0,0,207,207,207,207,207,207,207,207,207,207,
0,0,0,0,0,0,207,207,207,207,207,207,207,207,207,207,
0,0,0,0,0,0,207,207,207,207,207,207,207,207,207,207,
0,0,0,0,0,0,207,207,207,207,207,207,207,207,207,207,
0,0,0,0,0,0,207,207,207,207,207,207,207,207,207,207,
0,0,0,0,0,0,207,207,207,207,207,207,207,207,207,207,
0,0,0,0,0,0,207,207,207,207,207,207,207,207,207,207,
0,0,0,0,0,0,207,207,207,207,207,207,207,207,207,207,
0,0,0,0,0,0,0,0,0,0,207,207,207,207,0,0,
0,0,0,0,0,0,0,0,0,0,207,207,207,207,0,0
</chunk>
    <chunk x="-16" y="16" width="16" height="16">
0,0,0,0,0,0,0,0,0,0,0,0,0,0,0,0,
0,0,0,0,0,0,0,0,0,0,0,0,0,0,0,0,
0,0,0,0,0,0,0,0,0,0,0,0,0,0,0,0,
0,0,0,0,0,0,0,0,0,0,0,0,0,0,0,0,
207,207,0,0,0,0,0,0,0,0,0,0,0,0,0,0,
207,207,0,0,0,0,0,0,0,0,0,0,0,0,0,0,
207,207,0,0,0,0,0,0,0,0,0,0,0,0,0,0,
207,207,0,0,0,0,0,0,0,0,0,0,0,0,0,0,
207,207,0,0,0,0,0,0,0,0,0,0,0,0,0,0,
207,207,0,0,0,0,0,0,0,0,0,0,0,0,0,0,
207,207,0,0,0,0,0,0,0,0,0,0,0,0,0,0,
207,207,0,0,0,0,0,0,0,0,0,0,0,0,0,0,
207,207,0,0,0,0,0,0,0,0,0,0,0,0,0,0,
207,207,0,0,0,0,0,0,0,0,0,0,0,0,0,0,
0,0,0,0,0,0,0,0,0,0,0,0,0,0,0,0,
0,0,0,0,0,0,0,0,0,0,0,0,0,0,0,0
</chunk>
    <chunk x="0" y="16" width="16" height="16">
0,0,0,0,207,207,207,207,207,207,207,207,0,0,0,0,
0,0,0,0,207,207,207,207,207,207,207,207,0,0,0,0,
0,0,0,0,207,207,207,207,207,207,207,207,0,0,0,0,
0,0,0,0,207,207,207,207,207,207,207,207,0,0,0,0,
0,0,0,0,207,207,207,207,207,207,207,207,0,0,0,0,
0,0,0,0,207,207,207,207,207,207,207,207,0,0,0,0,
0,0,0,0,207,207,207,207,207,207,207,207,0,0,0,0,
0,0,0,0,207,207,207,207,207,207,207,207,0,0,0,0,
0,0,0,0,207,207,207,207,207,207,207,207,0,0,0,0,
0,0,0,0,207,207,207,207,207,207,207,207,207,207,207,207,
0,0,0,0,207,207,207,207,207,207,207,207,207,207,207,207,
0,0,0,0,207,207,207,207,207,207,207,207,207,207,207,207,
0,0,0,0,207,207,207,207,207,207,207,207,207,207,207,207,
0,0,0,0,207,207,207,207,207,207,207,207,207,207,207,207,
0,0,0,0,207,207,207,207,207,207,207,207,207,207,207,207,
0,0,0,0,207,207,207,207,207,207,207,207,207,207,207,207
</chunk>
    <chunk x="16" y="16" width="16" height="16">
0,0,0,0,0,0,0,0,0,0,0,0,0,0,0,0,
0,0,0,0,0,0,0,0,0,0,0,0,0,0,0,0,
0,0,0,0,0,0,0,0,0,0,0,0,0,0,0,0,
0,0,0,0,0,0,0,0,0,0,0,0,0,0,0,0,
0,0,0,0,0,0,0,0,0,0,0,0,0,0,0,0,
0,0,0,0,0,0,0,0,0,0,0,0,0,0,0,0,
0,0,0,0,0,0,0,0,0,0,0,0,0,0,0,0,
0,0,0,0,0,0,0,0,0,0,0,0,0,0,0,0,
0,0,0,0,0,0,0,0,0,0,0,0,0,0,0,0,
207,207,207,207,207,207,207,207,207,207,207,207,207,207,207,207,
207,207,207,207,207,207,207,207,207,207,207,207,207,207,207,207,
207,207,207,207,207,207,207,207,207,207,207,207,207,207,207,207,
207,207,207,207,207,207,207,207,207,207,207,207,207,207,207,207,
207,207,207,207,207,207,207,207,207,207,207,207,207,207,207,207,
207,207,207,207,207,207,207,207,207,207,207,207,207,207,207,207,
207,207,207,207,207,207,207,207,207,207,207,207,207,207,207,207
</chunk>
    <chunk x="32" y="16" width="16" height="16">
0,0,0,0,0,0,0,0,0,0,0,0,0,0,0,0,
0,0,0,0,0,0,0,0,0,0,0,0,0,0,0,0,
0,0,0,0,0,0,0,0,0,0,0,0,0,0,0,0,
0,0,0,0,0,0,0,0,0,0,0,0,0,0,0,0,
0,0,0,0,0,0,0,0,0,0,0,0,0,0,0,0,
0,0,0,0,0,0,0,0,0,0,0,0,0,0,0,0,
0,0,0,0,0,0,0,0,0,0,0,0,0,0,0,0,
0,0,0,0,0,0,0,0,0,0,0,0,0,0,0,0,
0,0,0,0,0,0,0,0,0,0,0,0,0,0,0,0,
207,207,207,207,207,207,207,207,207,207,207,207,207,207,207,207,
207,207,207,207,207,207,207,207,207,207,207,207,207,207,207,207,
207,207,207,207,207,207,207,207,207,207,207,207,207,207,207,207,
207,207,207,207,207,207,207,207,207,207,207,207,207,207,207,207,
207,207,207,207,207,207,207,207,207,207,207,207,207,207,207,207,
207,207,207,207,207,207,207,207,207,207,207,207,207,207,207,207,
207,207,207,207,207,207,207,207,207,207,207,207,207,207,207,207
</chunk>
    <chunk x="48" y="16" width="16" height="16">
0,0,0,0,0,0,0,0,0,0,0,0,0,0,0,0,
0,0,0,0,0,0,0,0,0,0,0,0,0,0,0,0,
0,0,0,0,0,0,0,0,0,0,0,0,0,0,0,0,
0,0,0,0,0,0,0,0,0,0,0,0,0,0,0,0,
0,0,0,0,0,0,0,0,0,0,0,0,0,0,0,0,
0,0,0,0,0,0,0,0,0,0,0,0,0,0,0,0,
0,0,0,0,0,0,0,0,0,0,0,0,0,0,0,0,
0,0,0,0,0,0,0,0,0,0,0,0,0,0,0,0,
0,0,0,0,0,0,0,0,0,0,0,0,0,0,0,0,
207,207,207,207,207,207,207,207,207,207,207,207,0,0,0,0,
207,207,207,207,207,207,207,207,207,207,207,207,0,0,0,0,
207,207,207,207,207,207,207,207,207,207,207,207,0,0,0,0,
207,207,207,207,207,207,207,207,207,207,207,207,0,0,0,0,
207,207,207,207,207,207,207,207,207,207,207,207,0,0,0,0,
207,207,207,207,207,207,207,207,207,207,207,207,0,0,0,0,
207,207,207,207,207,207,207,207,207,207,207,207,0,0,0,0
</chunk>
    <chunk x="-224" y="32" width="16" height="16">
0,0,0,0,207,207,207,207,207,207,207,207,207,207,207,207,
0,0,0,0,0,0,0,0,0,0,0,0,0,0,0,0,
0,0,0,0,0,0,0,0,0,0,0,0,0,0,0,0,
0,0,0,0,0,0,0,0,0,0,0,0,0,0,0,0,
0,0,0,0,0,0,0,0,0,0,0,0,0,0,0,0,
0,0,0,0,0,0,0,0,0,0,0,0,0,0,0,0,
0,0,0,0,0,0,0,0,0,0,0,0,0,0,0,0,
0,0,0,0,0,0,0,0,0,0,0,0,0,0,0,0,
0,0,0,0,0,0,0,0,0,0,0,0,0,0,0,0,
0,0,0,0,0,0,0,0,0,0,0,0,0,0,0,0,
0,0,0,0,0,0,0,0,0,0,0,0,0,0,0,0,
0,0,0,0,0,0,0,0,0,0,0,0,0,0,0,0,
0,0,0,0,0,0,0,0,0,0,0,0,0,0,0,0,
0,0,0,0,0,0,0,0,0,0,0,0,0,0,0,0,
0,0,0,0,0,0,0,0,0,0,0,0,0,0,0,0,
0,0,0,0,0,0,0,0,0,0,0,0,0,0,0,0
</chunk>
    <chunk x="-208" y="32" width="16" height="16">
207,207,207,207,207,207,207,207,207,207,207,207,207,207,207,0,
0,0,0,0,0,0,0,0,0,0,0,0,0,0,0,0,
0,0,0,0,0,0,0,0,0,0,0,0,0,0,0,0,
0,0,0,0,0,0,0,0,0,0,0,0,0,0,0,0,
0,0,0,0,0,0,0,0,0,0,0,0,0,0,0,0,
0,0,0,0,0,0,0,0,0,0,0,0,0,0,0,0,
0,0,0,0,0,0,0,0,0,0,0,0,0,0,0,0,
0,0,0,0,0,0,0,0,0,0,0,0,0,0,0,0,
0,0,0,0,0,0,0,0,0,0,0,0,0,0,0,0,
0,0,0,0,0,0,0,0,0,0,0,0,0,0,0,0,
0,0,0,0,0,0,0,0,0,0,0,0,0,0,0,0,
0,0,0,0,0,0,0,0,0,0,0,0,0,0,0,0,
0,0,0,0,0,0,0,0,0,0,0,0,0,0,0,0,
0,0,0,0,0,0,0,0,0,0,0,0,0,0,0,0,
0,0,0,0,0,0,0,0,0,0,0,0,0,0,0,0,
0,0,0,0,0,0,0,0,0,0,0,0,0,0,0,0
</chunk>
    <chunk x="-192" y="32" width="16" height="16">
0,0,0,207,207,207,207,207,207,207,207,207,207,207,207,207,
0,0,0,0,0,0,0,0,0,0,0,0,0,0,0,0,
0,0,0,0,0,0,0,0,0,0,0,0,0,0,0,0,
0,0,0,0,0,0,0,0,0,0,0,0,0,0,0,0,
0,0,0,0,0,0,0,0,0,0,0,0,0,0,0,0,
0,0,0,0,0,0,0,0,0,0,0,0,0,0,0,0,
0,0,0,0,0,0,0,0,0,0,0,0,0,0,0,0,
0,0,0,0,0,0,0,0,0,0,0,0,0,0,0,0,
0,0,0,0,0,0,0,0,0,0,0,0,0,0,0,0,
0,0,0,0,0,0,0,0,0,0,0,0,0,0,0,0,
0,0,0,0,0,0,0,0,0,0,0,0,0,0,0,0,
0,0,0,0,0,0,0,0,0,0,0,0,0,0,0,0,
0,0,0,0,0,0,0,0,0,0,0,0,0,0,0,0,
0,0,0,0,0,0,0,0,0,0,0,0,0,0,0,0,
0,0,0,0,0,0,0,0,0,0,0,0,0,0,0,0,
0,0,0,0,0,0,0,0,0,0,0,0,0,0,0,0
</chunk>
    <chunk x="-176" y="32" width="16" height="16">
207,207,207,207,207,207,207,207,207,207,207,207,207,207,207,207,
0,0,0,0,0,0,0,0,0,0,0,0,0,0,0,0,
0,0,0,0,0,0,0,0,0,0,0,0,0,0,0,0,
0,0,0,0,0,0,0,0,0,0,0,0,0,0,0,0,
0,0,0,0,0,0,0,0,0,0,0,0,0,0,0,0,
0,0,0,0,0,0,0,0,0,0,0,0,0,0,0,0,
0,0,0,0,0,0,0,0,0,0,0,0,0,0,0,0,
0,0,0,0,0,0,0,0,0,0,0,0,0,0,0,0,
0,0,0,0,0,0,0,0,0,0,0,0,0,0,0,0,
0,0,0,0,0,0,0,0,0,0,0,0,0,0,0,0,
0,0,0,0,0,0,0,0,0,0,0,0,0,0,0,0,
0,0,0,0,0,0,0,0,0,0,0,0,0,0,0,0,
0,0,0,0,0,0,0,0,0,0,0,0,0,0,0,0,
0,0,0,0,0,0,0,0,0,0,0,0,0,0,0,0,
0,0,0,0,0,0,0,0,0,0,0,0,0,0,0,0,
0,0,0,0,0,0,0,0,0,0,0,0,0,0,0,0
</chunk>
    <chunk x="-160" y="32" width="16" height="16">
207,207,207,207,207,207,207,207,207,207,207,0,0,0,0,0,
0,0,0,0,0,0,0,0,0,0,0,0,0,0,0,0,
0,0,0,0,0,0,0,0,0,0,0,0,0,0,0,0,
0,0,0,0,0,0,0,0,0,0,0,0,0,0,0,0,
0,0,0,0,0,0,0,0,0,0,0,0,0,0,0,0,
0,0,0,0,0,0,0,0,0,0,0,0,0,0,0,0,
0,0,0,0,0,0,0,0,0,0,0,0,0,0,0,0,
0,0,0,0,0,0,0,0,0,0,0,0,0,0,0,0,
0,0,0,0,0,0,0,0,0,0,0,0,0,0,0,0,
0,0,0,0,0,0,0,0,0,0,0,0,0,0,0,0,
0,0,0,0,0,0,0,0,0,0,0,0,0,0,0,0,
0,0,0,0,0,0,0,0,0,0,0,0,0,0,0,207,
0,0,0,0,0,0,0,0,0,0,0,0,0,0,207,207,
0,0,0,0,0,0,0,0,0,0,0,0,0,207,207,207,
0,0,0,0,0,0,0,0,0,0,0,0,0,207,207,207,
0,0,0,0,0,0,0,0,0,0,0,0,0,207,207,207
</chunk>
    <chunk x="-144" y="32" width="16" height="16">
0,0,0,0,0,0,0,0,0,0,0,0,0,207,207,207,
0,0,0,0,0,0,0,0,0,0,0,0,0,207,207,207,
0,0,0,0,0,0,0,0,0,0,0,0,0,207,207,207,
0,0,0,0,0,0,0,0,0,0,0,0,0,207,207,207,
0,0,0,0,0,0,0,0,0,0,0,0,0,207,207,207,
0,0,0,0,0,0,0,0,0,0,0,0,0,207,207,207,
0,0,0,0,0,0,0,0,0,0,0,0,0,207,207,207,
0,0,0,0,0,0,0,0,0,0,0,0,207,207,207,207,
0,0,0,0,0,0,207,207,207,207,207,207,207,207,207,207,
0,0,0,207,207,207,207,207,207,207,207,207,207,207,207,207,
0,207,207,207,207,207,207,207,207,207,207,207,207,207,207,207,
207,207,207,207,207,207,207,207,207,207,207,207,207,207,207,207,
207,207,207,207,207,207,207,207,207,207,207,207,207,207,207,207,
207,207,207,207,207,207,207,207,207,207,207,207,207,207,207,207,
207,207,207,207,207,207,207,207,207,207,207,207,207,207,207,207,
207,207,207,207,207,207,207,207,207,207,207,207,207,207,207,207
</chunk>
    <chunk x="-128" y="32" width="16" height="16">
207,207,207,0,0,0,0,0,0,0,0,0,0,0,0,0,
207,207,207,0,0,0,0,0,0,0,0,0,0,0,0,0,
207,207,207,0,0,0,0,0,0,0,0,0,0,0,0,0,
207,207,207,0,0,0,0,0,0,0,0,0,0,0,0,0,
207,207,207,0,0,0,0,0,0,0,0,0,0,0,0,0,
207,207,207,0,0,0,0,0,0,0,0,0,0,0,0,0,
207,207,207,0,0,0,0,0,0,0,0,0,0,0,0,0,
207,207,207,207,0,0,0,0,0,0,0,0,0,0,0,0,
207,207,207,207,207,207,207,207,207,207,0,0,0,0,0,0,
207,207,207,207,207,207,207,207,207,207,207,207,207,0,0,0,
207,207,207,207,207,207,207,207,207,207,207,207,207,207,207,0,
207,207,207,207,207,207,207,207,207,207,207,207,207,207,207,207,
207,207,207,207,207,207,207,207,207,207,207,207,207,207,207,207,
207,207,207,207,207,207,207,207,207,207,207,207,207,207,207,207,
207,207,207,207,207,207,207,207,207,207,207,207,207,207,207,207,
207,207,207,207,207,207,207,207,207,207,207,207,207,207,207,207
</chunk>
    <chunk x="-112" y="32" width="16" height="16">
0,0,0,0,0,0,0,0,0,0,0,0,0,0,0,0,
0,0,0,0,0,0,0,0,0,0,0,0,0,0,0,0,
0,0,0,0,0,0,0,0,0,0,0,0,0,0,0,0,
0,0,0,0,0,0,0,0,0,0,0,0,0,0,0,0,
0,0,0,0,0,0,0,0,0,0,0,0,0,0,0,0,
0,0,0,0,0,0,0,0,0,0,0,0,0,0,0,0,
0,0,0,0,0,0,0,0,0,0,0,0,0,0,0,0,
0,0,0,0,0,0,0,0,0,0,0,0,0,0,0,0,
0,0,0,0,0,0,0,0,0,0,0,0,0,0,0,0,
0,0,0,0,0,0,0,0,0,0,0,0,0,0,0,0,
0,0,0,0,0,0,0,0,0,0,0,0,0,0,0,0,
207,0,0,0,0,0,0,0,0,0,0,0,0,0,0,0,
207,207,207,0,0,0,0,0,0,0,0,0,0,0,0,0,
207,207,207,207,0,0,0,0,0,0,0,0,0,0,0,0,
207,207,207,207,207,0,0,0,0,0,0,0,0,0,0,0,
207,207,207,207,207,207,0,0,0,0,0,0,0,0,0,0
</chunk>
    <chunk x="-96" y="32" width="16" height="16">
0,0,0,0,0,0,0,0,0,0,0,0,0,0,0,0,
0,0,0,0,0,0,0,0,0,0,0,0,0,0,0,0,
0,0,0,0,0,0,0,0,0,0,0,0,0,0,0,0,
0,0,0,0,0,0,0,0,0,0,0,0,0,0,0,0,
0,0,0,0,0,0,0,0,0,0,0,0,0,0,0,0,
0,0,0,0,0,0,0,0,0,0,0,0,0,0,0,207,
0,0,0,0,0,0,0,0,0,0,0,0,0,0,0,207,
0,0,0,0,0,0,0,0,0,0,0,0,0,0,0,207,
0,0,0,0,0,0,0,0,0,0,0,0,0,0,0,207,
0,0,0,0,0,0,0,0,0,0,0,0,0,0,0,207,
0,0,0,0,0,0,0,0,0,0,0,0,0,0,0,207,
0,0,0,0,0,0,0,0,0,0,0,0,0,0,0,207,
0,0,0,0,0,0,0,0,0,0,0,0,0,0,0,207,
0,0,0,0,0,0,0,0,0,0,0,0,0,0,0,207,
0,0,0,0,0,0,0,0,0,0,0,0,0,0,0,207,
0,0,0,0,0,0,0,0,0,0,0,0,0,0,0,207
</chunk>
    <chunk x="-80" y="32" width="16" height="16">
0,0,0,0,0,0,0,0,0,0,0,0,0,0,0,0,
0,0,0,0,0,0,0,0,0,0,0,0,0,0,0,0,
0,0,0,0,0,0,0,0,0,0,0,0,0,0,0,0,
0,0,0,0,0,0,0,0,0,0,0,0,0,0,0,0,
0,0,0,0,0,0,0,0,0,0,0,0,0,0,0,0,
207,207,207,207,207,207,207,207,207,207,207,207,207,207,207,207,
207,207,207,207,207,207,207,207,207,207,207,207,207,207,207,207,
207,207,207,207,207,207,207,207,207,207,207,207,207,207,207,207,
207,207,207,207,207,207,207,207,207,207,207,207,207,207,207,207,
207,207,207,207,207,207,207,207,207,207,207,207,207,207,207,207,
207,207,207,207,207,207,207,207,207,207,207,207,207,207,207,207,
207,207,207,207,207,207,207,207,207,207,207,207,207,207,207,207,
207,207,207,207,0,0,0,0,0,0,0,0,0,0,0,0,
207,207,207,207,0,0,0,0,0,0,0,0,0,0,0,0,
207,207,207,207,0,0,0,0,0,0,0,0,0,0,0,0,
207,207,207,207,0,0,0,0,0,0,0,0,0,0,0,0
</chunk>
    <chunk x="-64" y="32" width="16" height="16">
0,0,0,0,0,0,0,0,0,0,0,0,0,0,0,0,
0,0,0,0,0,0,0,0,0,0,0,0,0,0,0,0,
0,0,0,0,0,0,0,0,0,0,0,0,0,0,0,0,
0,0,0,0,0,0,0,0,0,0,0,0,0,0,0,0,
0,0,0,0,0,0,0,0,0,0,0,0,0,0,0,0,
207,207,207,0,0,0,0,0,0,0,0,0,0,0,0,0,
207,207,207,0,207,207,207,207,207,207,207,207,207,207,207,207,
207,207,207,0,207,207,207,207,207,207,207,207,207,207,207,207,
207,207,207,0,207,207,207,207,207,207,207,207,207,207,207,207,
207,207,207,0,207,207,207,207,207,207,207,207,207,207,207,207,
207,207,207,0,207,207,207,207,207,207,207,207,207,207,207,207,
207,207,207,0,0,0,0,0,0,0,0,0,0,0,0,0,
0,0,0,0,0,0,0,0,0,0,0,0,0,0,0,0,
0,0,0,0,0,0,0,0,0,0,0,0,0,0,0,0,
0,0,0,0,0,0,0,0,0,0,0,0,0,0,0,0,
0,0,0,0,0,0,0,0,0,0,0,0,0,0,0,0
</chunk>
    <chunk x="-48" y="32" width="16" height="16">
0,0,0,0,0,0,0,0,0,0,0,0,0,0,0,0,
0,0,0,0,0,0,0,0,0,0,0,0,0,0,0,0,
0,0,0,0,0,0,0,0,0,0,0,0,0,0,0,0,
0,0,0,0,0,0,0,0,0,0,0,0,0,0,0,0,
0,0,0,0,0,0,0,0,0,0,0,0,0,0,0,0,
0,0,0,0,0,0,0,0,0,0,0,0,0,0,0,0,
207,207,207,207,207,207,207,207,207,207,207,207,207,207,207,207,
207,207,207,207,207,207,207,207,207,207,207,207,207,207,207,207,
207,207,207,207,207,207,207,207,207,207,207,207,207,207,207,207,
207,207,207,207,207,207,207,207,207,207,207,207,207,207,207,207,
207,207,207,207,207,207,207,207,207,207,207,207,207,207,207,207,
0,0,0,0,0,0,0,0,0,0,0,0,0,0,0,0,
0,0,0,0,0,0,0,0,0,0,0,0,0,0,0,0,
0,0,0,0,0,0,0,0,0,0,0,0,0,0,0,0,
0,0,0,0,0,0,0,0,0,0,0,0,0,0,0,0,
0,0,0,0,0,0,0,0,0,0,0,0,0,0,0,0
</chunk>
    <chunk x="-32" y="32" width="16" height="16">
0,0,0,0,0,0,0,0,0,0,207,207,207,207,0,0,
0,0,0,0,0,0,0,0,0,0,207,207,207,207,0,0,
0,0,0,0,0,0,0,0,0,0,207,207,207,207,0,0,
0,0,0,0,0,0,0,0,0,0,0,0,0,0,0,0,
0,0,0,0,0,0,0,0,0,0,0,0,0,0,0,0,
0,0,0,0,0,0,0,0,207,207,207,207,207,207,207,207,
207,207,207,207,207,207,207,0,207,207,207,207,207,207,207,207,
207,207,207,207,207,207,207,0,207,207,207,207,207,207,207,207,
207,207,207,207,207,207,207,0,207,207,207,207,207,207,207,207,
207,207,207,207,207,207,207,0,207,207,207,207,207,207,207,207,
207,207,207,207,207,207,207,0,207,207,207,207,207,207,207,207,
0,0,0,0,0,0,0,0,207,207,207,207,207,207,207,207,
0,0,0,0,0,0,0,0,207,207,207,207,207,207,207,207,
0,0,0,0,0,0,0,0,207,207,207,207,207,207,207,207,
0,0,0,0,0,0,0,0,207,207,207,207,207,207,207,207,
0,0,0,0,0,0,0,0,207,207,207,207,207,207,207,207
</chunk>
    <chunk x="-16" y="32" width="16" height="16">
0,0,0,0,0,0,0,0,0,0,0,0,0,0,0,0,
0,0,0,0,0,0,0,0,0,0,0,0,0,0,0,0,
0,0,0,0,0,0,0,0,0,0,0,0,0,0,0,0,
0,0,0,0,0,0,0,0,0,0,0,0,0,0,0,0,
0,0,0,0,0,0,0,0,0,0,0,0,0,0,0,0,
0,0,0,0,0,0,0,0,0,0,0,0,0,0,0,0,
0,0,0,0,0,0,0,0,0,0,0,0,0,0,0,0,
0,0,0,0,0,0,0,0,0,0,0,0,0,0,0,0,
0,0,0,0,0,0,0,0,0,0,0,0,0,0,0,0,
0,0,0,0,0,0,0,0,0,0,0,0,0,0,0,0,
0,0,0,0,0,0,0,0,0,0,0,0,0,0,0,0,
0,0,0,0,0,0,0,0,0,0,0,0,207,207,207,207,
0,0,0,0,0,0,0,0,0,0,0,0,207,207,207,207,
0,0,0,0,0,0,0,0,0,0,0,0,207,207,207,207,
0,0,0,0,0,0,0,0,0,0,0,0,207,207,207,207,
0,0,0,0,0,0,0,0,0,0,0,0,207,207,207,207
</chunk>
    <chunk x="0" y="32" width="16" height="16">
0,0,0,0,0,0,0,0,0,0,0,0,0,0,0,0,
0,0,0,0,0,0,0,0,0,0,0,0,0,0,0,0,
0,0,0,0,0,0,0,0,0,0,0,0,0,0,0,0,
0,0,0,0,0,0,0,0,0,0,0,0,0,0,0,0,
0,0,0,0,0,0,0,0,0,0,0,0,0,0,0,0,
0,0,0,0,0,0,0,0,0,0,0,0,0,0,0,0,
0,0,0,0,0,0,0,0,0,0,0,0,0,0,0,0,
0,0,0,0,0,0,0,0,0,0,0,0,0,0,0,0,
0,0,0,0,0,0,0,0,0,0,0,0,0,0,0,0,
0,0,0,0,0,0,0,0,0,0,0,0,0,0,0,0,
0,0,0,0,0,0,0,0,0,0,0,0,0,0,0,0,
207,207,207,207,207,207,207,207,207,207,207,207,207,207,207,207,
207,207,207,207,207,207,207,207,207,207,207,207,207,207,207,207,
207,207,207,207,207,207,207,207,207,207,207,207,207,207,207,207,
207,207,207,207,207,207,207,207,207,207,207,207,207,207,207,207,
207,207,207,207,207,207,207,207,207,207,207,207,207,207,207,207
</chunk>
    <chunk x="16" y="32" width="16" height="16">
0,0,0,0,0,0,0,0,0,0,0,0,0,0,0,0,
0,0,0,0,0,0,0,0,0,0,0,0,0,0,0,0,
0,0,0,0,0,0,0,0,0,0,0,0,0,0,0,0,
0,0,0,0,0,0,0,0,0,0,0,0,0,0,0,0,
0,0,0,0,0,0,0,0,0,0,0,0,0,0,0,0,
0,0,0,0,0,0,0,0,0,0,0,0,0,0,0,0,
0,0,0,0,0,0,0,0,0,0,0,0,0,0,0,0,
0,0,0,0,0,0,0,0,0,0,0,0,0,0,0,0,
0,0,0,0,0,0,0,0,0,0,0,0,0,0,0,0,
0,0,0,0,0,0,0,0,0,0,0,0,0,0,0,0,
0,0,0,0,0,0,0,0,0,0,0,0,0,0,0,0,
207,207,207,207,207,207,207,207,207,207,207,207,207,207,207,207,
207,207,207,207,207,207,207,207,207,207,207,207,207,207,207,207,
207,207,207,207,207,207,207,207,207,207,207,207,207,207,207,207,
207,207,207,207,207,207,207,207,207,207,207,207,207,207,207,207,
207,207,207,207,207,207,207,207,207,207,207,207,207,207,207,207
</chunk>
    <chunk x="32" y="32" width="16" height="16">
0,0,0,0,0,0,0,0,0,0,0,0,0,0,0,0,
0,0,0,0,0,0,0,0,0,0,0,0,0,0,0,0,
0,0,0,0,0,0,0,0,0,0,0,0,0,0,0,0,
0,0,0,0,0,0,0,0,0,0,0,0,0,0,0,0,
0,0,0,0,0,0,0,0,0,0,0,0,0,0,0,0,
0,0,0,0,0,0,0,0,0,0,0,0,0,0,0,0,
0,0,0,0,0,0,0,0,0,0,0,0,0,0,0,0,
0,0,0,0,0,0,0,0,0,0,0,0,0,0,0,0,
0,0,0,0,0,0,0,0,0,0,0,0,0,0,0,0,
0,0,0,0,0,0,0,0,0,0,0,0,0,0,0,0,
0,0,0,0,0,0,0,0,0,0,0,0,0,0,0,0,
207,207,207,207,207,207,207,207,207,207,207,207,207,207,207,207,
207,207,207,207,207,207,207,207,207,207,207,207,207,207,207,207,
207,207,207,207,207,207,207,207,207,207,207,207,207,207,207,207,
207,207,207,207,207,207,207,207,207,207,207,207,207,207,207,207,
207,207,207,207,207,207,207,207,207,207,207,207,207,207,207,207
</chunk>
    <chunk x="48" y="32" width="16" height="16">
0,0,0,0,207,207,207,207,207,207,207,207,0,0,0,0,
0,0,0,0,207,207,207,207,207,207,207,207,0,0,0,0,
0,0,0,0,207,207,207,207,207,207,207,207,0,0,0,0,
0,0,0,0,207,207,207,207,207,207,207,207,0,0,0,0,
0,0,0,0,207,207,207,207,207,207,207,207,0,0,0,0,
0,0,0,0,207,207,207,207,207,207,207,207,0,0,0,0,
0,0,0,0,207,207,207,207,207,207,207,207,0,0,0,0,
0,0,0,0,207,207,207,207,207,207,207,207,0,0,0,0,
0,0,0,0,207,207,207,207,207,207,207,207,0,0,0,0,
0,0,0,0,207,207,207,207,207,207,207,207,0,0,0,0,
0,0,0,0,207,207,207,207,207,207,207,207,0,0,0,0,
207,207,207,207,207,207,207,207,207,207,207,207,0,0,0,0,
207,207,207,207,207,207,207,207,207,207,207,207,0,0,0,0,
207,207,207,207,207,207,207,207,207,207,207,207,0,0,0,0,
207,207,207,207,207,207,207,207,207,207,207,207,0,0,0,0,
207,207,207,207,207,207,207,207,207,207,207,207,0,0,0,0
</chunk>
    <chunk x="-160" y="48" width="16" height="16">
0,0,0,0,0,0,0,0,0,0,0,0,0,207,207,207,
0,0,0,0,0,0,0,0,0,0,0,0,0,0,207,207,
0,0,0,0,0,0,0,0,0,0,0,0,0,0,0,207,
0,0,0,0,0,0,0,0,0,0,0,0,0,0,0,0,
0,0,0,0,0,0,0,0,0,0,0,0,0,0,0,0,
0,0,0,0,0,0,0,0,0,0,0,0,0,0,0,0,
0,0,0,0,0,0,0,0,0,0,0,0,0,0,0,0,
0,0,0,0,0,0,0,0,0,0,0,0,0,0,0,0,
0,0,0,0,0,0,0,0,0,0,0,0,0,0,0,0,
0,0,0,0,0,0,0,0,0,0,0,0,0,0,0,0,
0,0,0,0,0,0,0,0,0,0,0,0,0,0,0,0,
0,0,0,0,0,0,0,0,0,0,0,0,0,0,0,0,
0,0,0,0,0,0,0,0,0,0,0,0,0,0,0,0,
0,0,0,0,0,0,0,0,0,0,0,0,0,0,0,0,
0,0,0,0,0,0,0,0,0,0,0,0,0,0,0,0,
0,0,0,0,0,0,0,0,0,0,0,0,0,0,0,0
</chunk>
    <chunk x="-144" y="48" width="16" height="16">
207,207,207,207,207,207,207,207,207,207,207,207,207,207,207,207,
207,207,207,207,207,207,207,207,207,207,207,207,207,207,207,207,
207,207,207,207,207,207,207,207,207,207,207,207,207,207,207,207,
0,207,207,207,207,207,207,207,207,207,207,207,207,207,207,207,
0,0,0,207,207,207,207,207,207,207,207,207,207,207,207,207,
0,0,0,0,0,0,207,207,207,207,207,207,207,207,207,207,
0,0,0,0,0,0,0,0,0,0,0,0,207,207,207,207,
0,0,0,0,0,0,0,0,0,0,0,0,0,0,0,0,
0,0,0,0,0,0,0,0,0,0,0,0,0,0,0,0,
0,0,0,0,0,0,0,0,0,0,0,0,0,0,0,0,
0,0,0,0,0,0,0,0,0,0,0,0,0,0,0,0,
0,0,0,0,0,0,0,0,0,0,0,0,0,0,0,0,
0,0,0,0,0,0,0,0,0,0,0,0,0,0,0,0,
0,0,0,0,0,0,0,0,0,0,0,0,0,0,0,0,
0,0,0,0,0,0,0,0,0,0,0,0,0,0,0,0,
0,0,0,0,0,0,0,0,0,0,0,0,0,0,0,0
</chunk>
    <chunk x="-128" y="48" width="16" height="16">
207,207,207,207,207,207,207,207,207,207,207,207,207,207,207,207,
207,207,207,207,207,207,207,207,207,207,207,207,207,207,207,207,
207,207,207,207,207,207,207,207,207,207,207,207,207,207,207,207,
207,207,207,207,207,207,207,207,207,207,207,207,207,207,207,0,
207,207,207,207,207,207,207,207,207,207,207,207,207,0,0,0,
207,207,207,207,207,207,207,207,207,207,0,0,0,0,0,0,
207,207,207,207,0,0,0,0,0,0,0,0,0,0,0,0,
0,0,0,0,0,0,0,0,0,0,0,0,0,0,0,0,
0,0,0,0,0,0,0,0,0,0,0,0,0,0,0,0,
0,0,0,0,0,0,0,0,0,0,0,0,0,0,0,0,
0,0,0,0,0,0,0,0,0,0,0,0,0,0,0,0,
0,0,0,0,0,0,0,0,0,0,0,0,0,0,0,0,
0,0,0,0,0,0,0,0,0,0,0,0,0,0,0,0,
0,0,0,0,0,0,0,0,0,0,0,0,0,0,0,0,
0,0,0,0,0,0,0,0,0,0,0,0,0,0,0,0,
0,0,0,0,0,0,0,0,0,0,0,0,0,0,0,0
</chunk>
    <chunk x="-112" y="48" width="16" height="16">
207,207,207,207,207,207,207,0,0,0,0,0,0,0,0,0,
207,207,207,207,207,207,207,207,0,0,0,0,0,0,0,0,
207,0,207,207,207,207,207,207,207,207,207,207,207,207,207,207,
0,0,0,207,207,207,207,207,207,207,207,207,207,207,207,207,
0,0,0,0,207,207,207,207,207,207,207,207,207,207,207,207,
0,0,0,0,0,207,207,207,207,207,207,207,207,207,207,207,
0,0,0,0,0,0,207,207,207,207,207,207,207,207,207,207,
0,0,0,0,0,0,0,207,207,207,207,207,207,207,207,207,
0,0,0,0,0,0,0,0,0,0,0,0,0,0,0,0,
0,0,0,0,0,0,0,0,0,0,0,0,0,0,0,0,
0,0,0,0,0,0,0,0,0,0,0,0,0,0,0,0,
0,0,0,0,0,0,0,0,0,0,0,0,0,0,0,0,
0,0,0,0,0,0,0,0,0,0,0,0,0,0,0,0,
0,0,0,0,0,0,0,0,0,0,0,0,0,0,0,0,
0,0,0,0,0,0,0,0,0,0,0,0,0,0,0,0,
0,0,0,0,0,0,0,0,0,0,0,0,0,0,0,0
</chunk>
    <chunk x="-96" y="48" width="16" height="16">
0,0,0,0,0,0,0,0,0,0,0,0,0,0,0,207,
0,0,0,0,0,0,0,0,0,0,0,0,0,0,0,207,
207,207,207,207,207,207,207,207,207,207,207,207,0,0,0,207,
207,207,207,207,207,207,207,207,207,207,207,207,0,0,0,207,
207,207,207,207,207,207,207,207,207,207,207,207,0,0,0,207,
207,207,207,207,207,207,207,207,207,207,207,207,0,0,0,207,
207,207,207,207,207,207,207,207,207,207,207,207,0,0,0,207,
207,207,207,207,207,207,207,207,207,207,207,207,0,0,0,207,
0,0,0,0,0,0,0,0,0,0,0,0,0,0,0,207,
0,0,0,0,0,0,0,0,0,0,0,0,0,0,0,207,
0,0,0,0,0,0,0,0,0,0,0,0,0,0,0,207,
0,0,0,0,0,0,0,0,0,0,0,0,0,0,0,207,
0,0,0,0,0,0,0,0,0,0,0,0,0,0,0,207,
0,0,0,0,0,0,0,0,0,0,0,0,0,0,0,207,
0,0,0,0,0,0,0,0,0,0,0,0,0,0,0,207,
0,0,0,0,0,0,0,0,0,0,0,0,0,0,0,207
</chunk>
    <chunk x="-80" y="48" width="16" height="16">
207,207,207,207,0,0,0,0,0,0,0,0,0,0,0,0,
207,207,207,207,0,0,0,0,0,0,0,0,0,0,0,0,
207,207,207,207,0,0,0,207,207,207,207,207,207,207,207,207,
207,207,207,207,0,0,0,207,207,207,207,207,207,207,207,207,
207,207,207,207,0,0,0,207,207,207,207,207,207,207,207,207,
207,207,207,207,0,0,0,207,207,207,207,207,207,207,207,207,
207,207,207,207,0,0,0,207,207,207,207,207,207,207,207,207,
207,207,207,207,0,0,0,207,207,207,207,207,207,207,207,207,
207,207,207,207,0,0,0,0,0,0,0,0,0,0,0,0,
207,207,207,207,0,0,0,0,0,0,0,0,0,0,0,0,
207,207,207,207,0,0,0,0,0,0,0,0,0,0,0,0,
207,207,207,207,0,0,0,0,0,0,0,0,0,0,0,0,
207,207,207,207,0,0,0,0,0,0,0,0,0,0,0,0,
207,207,207,207,0,0,0,0,0,0,0,0,0,0,0,0,
207,207,207,207,0,0,0,0,0,0,0,0,0,0,0,0,
207,207,207,207,207,207,207,207,207,207,207,207,207,207,207,207
</chunk>
    <chunk x="-64" y="48" width="16" height="16">
0,0,0,0,0,0,0,0,0,0,0,0,0,0,0,0,
0,0,0,0,0,0,0,0,0,0,0,0,0,0,0,0,
207,207,207,207,207,207,207,207,0,0,0,0,0,0,0,0,
207,207,207,207,207,207,207,207,0,0,0,0,0,0,0,0,
207,207,207,207,207,207,207,207,0,0,0,0,0,0,0,0,
207,207,207,207,207,207,207,207,0,0,0,0,0,0,0,0,
207,207,207,207,207,207,207,207,0,0,0,0,0,0,0,0,
207,207,207,207,207,207,207,207,0,0,0,0,0,0,0,0,
0,0,0,207,207,207,207,207,0,0,0,0,0,0,0,0,
0,0,0,207,207,207,207,207,0,0,0,0,0,0,0,0,
0,0,0,207,207,207,207,207,0,0,0,0,0,0,0,0,
0,0,0,207,207,207,207,207,0,0,0,0,0,0,0,0,
0,0,0,207,207,207,207,207,0,0,0,0,0,0,0,0,
0,0,0,207,207,207,207,207,0,0,0,0,0,0,0,0,
0,0,0,207,207,207,207,207,0,0,0,0,0,0,0,0,
207,207,207,207,207,207,207,207,0,0,0,0,0,0,0,0
</chunk>
    <chunk x="-32" y="48" width="16" height="16">
0,0,0,0,0,0,0,0,207,207,207,207,207,207,207,207,
0,0,0,0,0,0,0,0,207,207,207,207,207,207,207,207,
0,0,0,0,0,0,0,0,207,207,207,207,207,207,207,207,
0,0,0,0,0,0,0,0,207,207,207,207,207,207,207,207,
0,0,0,0,0,0,0,0,207,207,207,207,207,207,207,207,
0,0,0,0,0,0,0,0,207,207,207,207,207,207,207,207,
0,0,0,0,0,0,0,0,207,207,207,207,207,207,207,207,
0,0,0,0,0,0,0,0,207,207,207,207,207,207,207,207,
0,0,0,0,0,0,0,0,207,207,207,207,207,207,207,207,
0,0,0,0,0,0,0,0,207,207,207,207,207,207,207,207,
0,0,0,0,0,0,0,0,207,207,207,207,207,207,207,207,
0,0,0,0,0,0,0,0,207,207,207,207,207,207,207,207,
0,0,0,0,0,0,0,0,207,207,207,207,207,207,207,207,
0,0,0,0,0,0,0,0,207,207,207,207,207,207,207,207,
0,0,0,0,0,0,0,0,207,207,207,207,207,207,207,207,
0,0,0,0,0,0,0,0,207,207,207,207,207,207,207,207
</chunk>
    <chunk x="-16" y="48" width="16" height="16">
0,0,0,0,0,0,0,0,0,0,0,0,207,207,207,207,
0,0,0,0,0,0,0,0,0,0,0,0,207,207,207,207,
0,0,0,0,0,0,0,0,0,0,0,0,207,207,207,207,
0,0,0,0,0,0,0,0,0,0,0,0,207,207,207,207,
0,0,0,0,0,0,0,0,0,0,0,0,207,207,207,207,
0,0,0,0,0,0,0,0,0,0,0,0,207,207,207,207,
0,0,0,0,0,0,0,0,0,0,0,0,207,207,207,207,
0,0,0,0,0,0,0,0,0,0,0,0,207,207,207,207,
0,0,0,0,0,0,0,0,0,0,0,0,207,207,207,207,
0,0,0,0,0,0,0,0,0,0,0,0,207,207,207,207,
0,0,0,0,0,0,0,0,0,0,0,0,207,207,207,207,
0,0,0,0,0,0,0,0,0,0,0,0,207,207,207,207,
0,0,0,0,0,0,0,0,0,0,0,0,207,207,207,207,
0,0,0,0,0,0,0,0,0,0,0,0,207,207,207,207,
0,0,0,0,0,0,0,0,0,0,0,0,207,207,207,207,
0,0,0,0,0,0,0,0,0,0,0,0,207,207,207,207
</chunk>
    <chunk x="0" y="48" width="16" height="16">
207,207,207,207,207,207,207,207,207,207,207,207,207,207,207,207,
207,207,207,207,207,207,207,207,207,207,207,207,207,207,207,207,
207,207,207,207,0,0,0,0,0,0,0,0,0,0,0,0,
207,207,207,207,0,0,0,0,0,0,0,0,0,0,0,0,
207,207,207,207,0,0,0,0,0,0,0,0,0,0,0,0,
207,207,207,207,0,0,0,0,0,0,0,0,0,0,0,0,
207,207,207,207,0,0,0,0,0,0,0,0,0,0,0,0,
207,207,207,207,0,0,0,0,0,0,0,0,0,0,0,0,
207,207,207,207,0,0,0,0,0,0,0,0,0,0,0,0,
207,207,207,207,0,0,0,0,0,0,0,0,0,0,0,0,
207,207,207,207,0,0,0,0,0,0,0,0,0,0,0,0,
207,207,207,207,0,0,0,0,0,0,0,0,0,0,0,0,
207,207,207,207,0,0,0,0,0,0,0,0,0,0,0,0,
207,207,207,207,0,0,0,0,0,0,0,0,0,0,0,0,
207,207,207,207,0,0,0,0,0,0,0,0,0,0,0,0,
207,207,207,207,0,0,0,0,0,0,0,0,0,0,0,0
</chunk>
    <chunk x="16" y="48" width="16" height="16">
207,207,207,207,207,207,207,207,207,207,207,207,207,207,207,207,
207,207,207,207,207,207,207,207,207,207,207,207,207,207,207,207,
0,0,0,0,0,0,0,0,0,0,0,0,0,0,0,0,
0,0,0,0,0,0,0,0,0,0,0,0,0,0,0,0,
0,0,0,0,0,0,0,0,0,0,0,0,0,0,0,0,
0,0,0,0,0,0,0,0,0,0,0,0,0,0,0,0,
0,0,0,0,0,0,0,0,0,0,0,0,0,0,0,0,
0,0,0,0,0,0,0,0,0,0,0,0,0,0,0,0,
0,0,0,0,0,0,0,0,0,0,0,0,0,0,0,0,
0,0,0,0,0,0,0,0,0,0,0,0,0,0,0,0,
0,0,0,0,0,0,0,0,0,0,0,0,0,0,0,0,
0,0,0,0,0,0,0,0,0,0,0,0,0,0,0,0,
0,0,0,0,0,0,0,0,0,0,0,0,0,0,0,0,
0,0,0,0,0,0,0,0,0,0,0,0,0,0,0,0,
0,0,0,0,0,0,0,0,0,0,0,0,0,0,0,0,
0,0,0,0,0,0,0,0,0,0,0,0,0,0,0,0
</chunk>
    <chunk x="32" y="48" width="16" height="16">
207,207,207,207,207,207,207,207,207,207,207,207,207,207,207,207,
207,207,207,207,207,207,207,207,207,207,207,207,207,207,207,207,
0,0,0,0,0,0,0,0,0,0,0,0,0,0,0,0,
0,0,0,0,0,0,0,0,0,0,0,0,0,0,0,0,
0,0,0,0,0,0,0,0,0,0,0,0,0,0,0,0,
0,0,0,0,0,0,0,0,0,0,0,0,0,0,0,0,
0,0,0,0,0,0,0,0,0,0,0,0,0,0,0,0,
0,0,0,0,0,0,0,0,0,0,0,0,0,0,0,0,
0,0,0,0,0,0,0,0,0,0,0,0,0,0,0,0,
0,0,0,0,0,0,0,0,0,0,0,0,0,0,0,0,
0,0,0,0,0,0,0,0,0,0,0,0,0,0,0,0,
0,0,0,0,0,0,0,0,0,0,0,0,0,0,0,0,
0,0,0,0,0,0,0,0,0,0,0,0,0,0,0,0,
0,0,0,0,0,0,0,0,0,0,0,0,0,0,0,0,
0,0,0,0,0,0,0,0,0,0,0,0,0,0,0,0,
0,0,0,0,0,0,0,0,0,0,0,0,0,0,0,0
</chunk>
    <chunk x="48" y="48" width="16" height="16">
207,207,207,207,207,207,207,207,207,207,207,207,0,0,0,0,
207,207,207,207,207,207,207,207,207,207,207,207,0,0,0,0,
0,0,0,0,0,0,0,0,0,0,0,0,0,0,0,0,
0,0,0,0,0,0,0,0,0,0,0,0,0,0,0,0,
0,0,0,0,0,0,0,0,0,0,0,0,0,0,0,0,
0,0,0,0,0,0,0,0,0,0,0,0,0,0,0,0,
0,0,0,0,0,0,0,0,0,0,0,0,0,0,0,0,
0,0,0,0,0,0,0,0,0,0,0,0,0,0,0,0,
0,0,0,0,0,0,0,0,0,0,0,0,0,0,0,0,
0,0,0,0,0,0,0,0,0,0,0,0,0,0,0,0,
0,0,0,0,0,0,0,0,0,0,0,0,0,0,0,0,
0,0,0,0,0,0,0,0,0,0,0,0,0,0,0,0,
0,0,0,0,0,0,0,0,0,0,0,0,0,0,0,0,
0,0,0,0,0,0,0,0,0,0,0,0,0,0,0,0,
0,0,0,0,0,0,0,0,0,0,0,0,0,0,0,0,
0,0,0,0,0,0,0,0,0,0,0,0,0,0,0,0
</chunk>
    <chunk x="-96" y="64" width="16" height="16">
0,0,0,0,0,0,0,0,0,0,0,0,0,0,0,207,
0,0,0,0,0,0,0,0,0,0,0,0,0,0,0,207,
0,0,0,0,0,0,0,0,0,0,0,0,0,0,0,207,
0,0,0,0,0,0,0,0,0,0,0,0,0,0,0,207,
0,0,0,0,0,0,0,0,0,0,0,0,0,0,0,207,
0,0,0,0,0,0,0,0,0,0,0,0,0,0,0,207,
0,0,0,0,0,0,0,0,0,0,0,0,0,0,0,0,
0,0,0,0,0,0,0,0,0,0,0,0,0,0,0,0,
0,0,0,0,0,0,0,0,0,0,0,0,0,0,0,0,
0,0,0,0,0,0,0,0,0,0,0,0,0,0,0,0,
0,0,0,0,0,0,0,0,0,0,0,0,0,0,0,0,
0,0,0,0,0,0,0,0,0,0,0,0,0,0,0,0,
0,0,0,0,0,0,0,0,0,0,0,0,0,0,0,0,
0,0,0,0,0,0,0,0,0,0,0,0,0,0,0,0,
0,0,0,0,0,0,0,0,0,0,0,0,0,0,0,0,
0,0,0,0,0,0,0,0,0,0,0,0,0,0,0,0
</chunk>
    <chunk x="-80" y="64" width="16" height="16">
207,207,207,207,207,207,207,207,207,207,207,207,207,207,207,207,
207,207,207,207,207,207,207,207,207,207,207,207,207,207,207,207,
207,207,207,207,207,207,207,207,207,207,207,207,207,207,207,207,
207,207,207,207,207,207,207,207,207,207,207,207,207,207,207,207,
207,207,207,207,207,207,207,207,207,207,207,207,207,207,207,207,
207,207,207,207,207,207,207,207,207,207,207,207,207,207,207,207,
0,0,0,0,0,0,0,0,0,0,0,0,0,0,0,0,
0,0,0,0,0,0,0,0,0,0,0,0,0,0,0,0,
0,0,0,0,0,0,0,0,0,0,0,0,0,0,0,0,
0,0,0,0,0,0,0,0,0,0,0,0,0,0,0,0,
0,0,0,0,0,0,0,0,0,0,0,0,0,0,0,0,
0,0,0,0,0,0,0,0,0,0,0,0,0,0,0,0,
0,0,0,0,0,0,0,0,0,0,0,0,0,0,0,0,
0,0,0,0,0,0,0,0,0,0,0,0,0,0,0,0,
0,0,0,0,0,0,0,0,0,0,0,0,0,0,0,0,
0,0,0,0,0,0,0,0,0,0,0,0,0,0,0,0
</chunk>
    <chunk x="-64" y="64" width="16" height="16">
207,207,207,207,207,207,207,207,0,0,0,0,0,0,0,0,
207,207,207,207,207,207,207,207,0,0,0,0,0,0,0,0,
207,207,207,207,207,207,207,207,0,0,0,0,0,0,0,0,
207,207,207,207,207,207,207,207,0,0,0,0,0,0,0,0,
207,207,207,207,207,207,207,207,0,0,0,0,0,0,0,0,
207,207,207,207,207,207,207,207,0,0,0,0,0,0,0,0,
0,0,0,0,0,0,0,0,0,0,0,0,0,0,0,0,
0,0,0,0,0,0,0,0,0,0,0,0,0,0,0,0,
0,0,0,0,0,0,0,0,0,0,0,0,0,0,0,0,
0,0,0,0,0,0,0,0,0,0,0,0,0,0,0,0,
0,0,0,0,0,0,0,0,0,0,0,0,0,0,0,0,
0,0,0,0,0,0,0,0,0,0,0,0,0,0,0,0,
0,0,0,0,0,0,0,0,0,0,0,0,0,0,0,0,
0,0,0,0,0,0,0,0,0,0,0,0,0,0,0,0,
0,0,0,0,0,0,0,0,0,0,0,0,0,0,0,0,
0,0,0,0,0,0,0,0,0,0,0,0,0,0,0,0
</chunk>
    <chunk x="-32" y="64" width="16" height="16">
0,0,0,0,0,0,0,0,207,207,207,207,207,207,207,207,
0,0,0,0,0,0,0,0,207,207,207,207,207,207,207,207,
0,0,0,0,0,0,0,0,207,207,207,207,207,207,207,207,
0,0,0,0,0,0,0,0,207,207,207,207,207,207,207,207,
0,0,0,0,0,0,0,0,207,207,207,207,207,207,207,207,
0,0,0,0,0,0,0,0,207,207,207,207,207,207,207,207,
0,0,0,0,0,0,0,0,207,207,207,207,207,207,207,207,
0,0,0,0,0,0,0,0,207,207,207,207,207,207,207,207,
0,0,0,0,0,0,0,0,207,207,207,207,207,207,207,207,
0,0,0,0,0,0,0,0,207,207,207,207,207,207,207,207,
0,0,0,0,0,0,0,0,207,207,207,207,207,207,207,207,
0,0,0,0,0,0,0,0,207,207,207,207,207,207,207,207,
0,0,0,0,0,0,0,0,207,207,207,207,207,207,207,207,
0,0,0,0,0,0,0,0,0,0,0,0,0,0,0,0,
0,0,0,0,0,0,0,0,0,0,0,0,0,0,0,0,
0,0,0,0,0,0,0,0,0,0,0,0,0,0,0,0
</chunk>
    <chunk x="-16" y="64" width="16" height="16">
0,0,0,0,0,0,0,0,0,0,0,0,207,207,207,207,
0,0,0,0,0,0,0,0,0,0,0,0,207,207,207,207,
0,0,0,0,0,0,0,0,0,0,0,0,207,207,207,207,
0,0,0,0,0,0,0,0,0,0,0,0,207,207,207,207,
0,0,0,0,0,0,0,0,0,0,0,0,207,207,207,207,
0,0,0,0,0,0,0,0,0,0,0,0,207,207,207,207,
207,207,207,207,207,207,207,207,207,207,207,207,207,207,207,207,
207,207,207,207,207,207,207,207,207,207,207,207,207,207,207,207,
207,207,207,207,207,207,207,207,207,207,207,207,207,207,207,207,
207,207,207,207,207,207,207,207,207,207,207,207,207,207,207,207,
207,207,207,207,207,207,207,207,207,207,207,207,207,207,207,207,
207,207,207,207,207,207,207,207,207,207,207,207,207,207,207,207,
207,207,207,207,207,207,207,207,207,207,207,207,207,207,207,207,
0,0,0,0,0,0,0,0,0,0,0,0,0,0,0,0,
0,0,0,0,0,0,0,0,0,0,0,0,0,0,0,0,
0,0,0,0,0,0,0,0,0,0,0,0,0,0,0,0
</chunk>
    <chunk x="0" y="64" width="16" height="16">
207,207,207,207,0,0,0,0,0,0,0,0,0,0,0,0,
207,207,207,207,0,0,0,0,0,0,0,0,0,0,0,0,
207,207,207,207,0,0,0,0,0,0,0,0,0,0,0,0,
207,207,207,207,0,0,0,0,0,0,0,0,0,0,0,0,
207,207,207,207,0,0,0,0,0,0,0,0,0,0,0,0,
207,207,207,207,0,0,0,0,0,0,0,0,0,0,0,0,
207,207,207,207,0,0,0,0,0,0,0,0,0,0,0,0,
207,207,207,207,0,0,0,0,0,0,0,0,0,0,0,0,
207,207,207,207,0,0,0,0,0,0,0,0,0,0,0,0,
207,207,207,207,0,0,0,0,0,0,0,0,0,0,0,0,
207,207,207,207,0,0,0,0,0,0,0,0,0,0,0,0,
207,207,207,207,0,0,0,0,0,0,0,0,0,0,0,0,
207,207,207,207,0,0,0,0,0,0,0,0,0,0,0,0,
0,0,0,0,0,0,0,0,0,0,0,0,0,0,0,0,
0,0,0,0,0,0,0,0,0,0,0,0,0,0,0,0,
0,0,0,0,0,0,0,0,0,0,0,0,0,0,0,0
</chunk>
   </data>
  </layer>
  <layer id="8" name="Bridge" width="18" height="18">
   <data encoding="csv">
    <chunk x="-176" y="0" width="16" height="16">
0,0,0,0,0,0,0,0,0,0,0,0,0,0,0,0,
0,0,0,0,0,0,0,0,0,0,0,0,0,0,0,0,
0,0,0,0,0,0,0,0,0,0,0,0,0,0,0,0,
0,0,0,0,0,0,0,0,0,0,0,0,0,0,0,0,
0,0,0,0,0,0,0,0,0,0,0,0,0,0,0,0,
0,0,0,0,0,0,0,0,0,0,0,0,0,0,0,0,
0,0,0,0,0,0,0,0,0,0,0,0,0,0,0,0,
0,0,0,0,0,0,0,0,0,0,0,0,0,0,0,0,
0,0,0,0,0,0,0,0,0,0,0,0,0,0,0,0,
0,0,0,0,0,0,0,0,0,207,0,0,0,0,0,0,
0,0,0,0,0,0,0,0,0,0,0,0,0,0,0,0,
0,0,0,0,0,0,0,0,0,0,0,0,0,0,0,0,
0,0,0,0,0,0,0,0,0,0,0,0,0,0,0,0,
0,0,0,0,0,0,0,0,0,0,0,0,0,0,0,0,
0,0,0,0,0,0,0,0,0,0,0,0,0,0,0,0,
0,0,0,0,0,0,0,0,0,0,0,0,0,0,0,0
</chunk>
    <chunk x="-96" y="48" width="16" height="16">
0,0,0,0,0,0,0,0,0,0,0,0,0,0,0,0,
0,0,0,0,0,0,0,0,0,0,0,0,0,0,0,0,
0,0,0,0,0,0,0,0,0,0,0,0,207,207,207,207,
0,0,0,0,0,0,0,0,0,0,0,0,207,207,207,207,
0,0,0,0,0,0,0,0,0,0,0,0,207,207,207,207,
0,0,0,0,0,0,0,0,0,0,0,0,207,207,207,207,
0,0,0,0,0,0,0,0,0,0,0,0,207,207,207,207,
0,0,0,0,0,0,0,0,0,0,0,0,207,207,207,207,
0,0,0,0,0,0,0,0,0,0,0,0,0,0,0,0,
0,0,0,0,0,0,0,0,0,0,0,0,0,0,0,0,
0,0,0,0,0,0,0,0,0,0,0,0,0,0,0,0,
0,0,0,0,0,0,0,0,0,0,0,0,0,0,0,0,
0,0,0,0,0,0,0,0,0,0,0,0,0,0,0,0,
0,0,0,0,0,0,0,0,0,0,0,0,0,0,0,0,
0,0,0,0,0,0,0,0,0,0,0,0,0,0,0,0,
0,0,0,0,0,0,0,0,0,0,0,0,0,0,0,0
</chunk>
    <chunk x="-80" y="48" width="16" height="16">
0,0,0,0,0,0,0,0,0,0,0,0,0,0,0,0,
0,0,0,0,0,0,0,0,0,0,0,0,0,0,0,0,
207,207,207,207,207,207,207,0,0,0,0,0,0,0,0,0,
207,207,207,207,207,207,207,0,0,0,0,0,0,0,0,0,
207,207,207,207,207,207,207,0,0,0,0,0,0,0,0,0,
207,207,207,207,207,207,207,0,0,0,0,0,0,0,0,0,
207,207,207,207,207,207,207,0,0,0,0,0,0,0,0,0,
207,207,207,207,207,207,207,0,0,0,0,0,0,0,0,0,
0,0,0,0,0,0,0,0,0,0,0,0,0,0,0,0,
0,0,0,0,0,0,0,0,0,0,0,0,0,0,0,0,
0,0,0,0,0,0,0,0,0,0,0,0,0,0,0,0,
0,0,0,0,0,0,0,0,0,0,0,0,0,0,0,0,
0,0,0,0,0,0,0,0,0,0,0,0,0,0,0,0,
0,0,0,0,0,0,0,0,0,0,0,0,0,0,0,0,
0,0,0,0,0,0,0,0,0,0,0,0,0,0,0,0,
0,0,0,0,0,0,0,0,0,0,0,0,0,0,0,0
</chunk>
   </data>
  </layer>
 </group>
 <group id="5" name="Props">
  <objectgroup id="3" name="Sprite">
   <object id="9" gid="195" x="224" y="64" width="32" height="32"/>
   <object id="10" gid="177" x="224" y="32" width="32" height="32"/>
   <object id="11" gid="178" x="256" y="32" width="32" height="32"/>
   <object id="12" gid="196" x="256" y="64" width="32" height="32"/>
  </objectgroup>
 </group>
 <group id="6" name="Collisions">
  <objectgroup id="7" name="Walls">
   <object id="18" x="96" y="-96" width="320" height="96"/>
   <object id="19" x="384" y="-32" width="64" height="832"/>
   <object id="20" x="64" y="-32" width="64" height="1056"/>
   <object id="21" x="64" y="1024" width="1600" height="64"/>
   <object id="22" x="1600" y="1024" width="64" height="352"/>
   <object id="23" x="-128" y="1312" width="1792" height="64"/>
   <object id="24" x="384" y="736" width="1568" height="64"/>
   <object id="25" x="1920" y="736" width="64" height="896"/>
   <object id="29" x="128" y="1600" width="1824" height="64"/>
   <object id="30" x="-192" y="1312" width="64" height="928"/>
   <object id="31" x="128" y="1600" width="64" height="896"/>
   <object id="32" x="-800" y="2464" width="960" height="64"/>
   <object id="33" x="-832" y="1376" width="64" height="1120"/>
   <object id="34" x="-512" y="2176" width="384" height="64"/>
   <object id="35" x="-512" y="1184" width="64" height="1056"/>
   <object id="38" x="-1952" y="1152" width="1184" height="64"/>
   <object id="39" x="-1952" y="1376" width="1120" height="64"/>
   <object id="40" x="-2624" y="1120" width="672" height="64"/>
   <object id="41" x="-2432" y="1408" width="480" height="64"/>
   <object id="43" x="-2656" y="1184" width="64" height="1120"/>
   <object id="44" x="-2592" y="2240" width="832" height="64"/>
   <object id="45" x="-1792" y="1600" width="64" height="672"/>
   <object id="46" x="-2336" y="1536" width="608" height="64"/>
   <object id="47" x="-2336" y="1792" width="384" height="64"/>
   <object id="48" x="-2016" y="1792" width="64" height="224"/>
   <object id="49" x="-2432" y="1952" width="480" height="64"/>
   <object id="50" x="-2432" y="1440" width="64" height="576"/>
   <object id="55" x="-3328" y="1792" width="608" height="64"/>
   <object id="56" x="-3296" y="1536" width="576" height="64"/>
   <object id="58" x="-3552" y="1344" width="256" height="256">
    <polygon points="32,0 256,192 256,256 32,64"/>
   </object>
   <object id="59" x="-3552" y="1600" width="224" height="256">
    <polygon points="32,0 224,192 224,256 32,64"/>
   </object>
   <object id="63" x="-4000" y="704" width="64" height="544"/>
   <object id="64" x="-3968" y="1216" width="192" height="64"/>
   <object id="65" x="-4256" y="928" width="64" height="320"/>
   <object id="66" x="-4416" y="1216" width="192" height="64"/>
   <object id="68" x="-4544" y="1248" width="128" height="64"/>
   <object id="69" x="-4576" y="1280" width="64" height="64"/>
   <object id="72" x="-3776" y="1248" width="128" height="64"/>
   <object id="73" x="-3680" y="1280" width="64" height="64"/>
   <object id="74" x="-4768" y="928" width="576" height="64"/>
   <object id="75" x="-4768" y="928" width="64" height="128"/>
   <object id="76" x="-4768" y="672" width="800" height="64"/>
   <object id="77" x="-4768" y="576" width="64" height="160"/>
   <object id="78" x="-5216" y="544" width="480" height="64"/>
   <object id="79" x="-6048" y="1056" width="1344" height="64"/>
   <object id="80" x="-6048" y="544" width="608" height="64"/>
   <object id="82" x="-6176" y="544" width="128" height="576"/>
   <object id="83" x="-7040" y="544" width="864" height="64"/>
   <object id="84" x="-7040" y="1056" width="864" height="64"/>
   <object id="85" x="-5504" y="256" width="64" height="352"/>
   <object id="86" x="-5216" y="96" width="64" height="512"/>
   <object id="87" x="-5888" y="32" width="736" height="64"/>
   <object id="88" x="-5888" y="-32" width="64" height="64"/>
   <object id="89" x="-6272" y="-64" width="448" height="64"/>
   <object id="90" x="-6304" y="-64" width="64" height="352"/>
   <object id="91" x="-6272" y="256" width="832" height="64"/>
   <object id="92" x="-4224" y="1760" width="256" height="64"/>
   <object id="93" x="-3968" y="1728" width="192" height="64"/>
   <object id="94" x="-3776" y="1696" width="96" height="64"/>
   <object id="95" x="-4416" y="1728" width="192" height="64"/>
   <object id="97" x="-4512" y="1696" width="96" height="64"/>
   <object id="98" x="-3680" y="1664" width="64" height="64"/>
   <object id="99" x="-4576" y="1664" width="64" height="64"/>
   <object id="100" x="-3616" y="1600" width="96" height="96">
    <polygon points="0,32 96,0 96,64 0,96"/>
   </object>
   <object id="102" x="-3616" y="1312" width="96" height="96">
    <polygon points="0,0 96,32 96,96 0,64"/>
   </object>
   <object id="103" x="-4768" y="1440" width="64" height="128"/>
   <object id="104" x="-4640" y="1312" width="64" height="64"/>
   <object id="105" x="-4640" y="1632" width="64" height="64"/>
   <object id="106" x="-4736" y="1344" width="96" height="96">
    <polygon points="0,64 96,0 96,64 0,128"/>
   </object>
   <object id="107" x="-4736" y="1568" width="96" height="96">
    <polygon points="0,-32 96,32 96,96 0,32"/>
   </object>
   <object id="108" x="-576" y="1120" width="128" height="64"/>
   <object id="109" x="-768" y="1120" width="64" height="64"/>
   <object id="111" x="-576" y="960" width="64" height="160"/>
   <object id="112" x="-768" y="960" width="64" height="160"/>
   <object id="113" x="-576" y="960" width="160" height="64"/>
   <object id="114" x="-864" y="960" width="160" height="64"/>
   <object id="117" x="-896" y="608" width="64" height="384"/>
   <object id="118" x="-448" y="608" width="64" height="384"/>
   <object id="119" x="-864" y="576" width="448" height="64"/>
   <object id="120" x="-7104" y="544" width="64" height="576"/>
  </objectgroup>
  <objectgroup id="9" name="Bridge">
   <object id="52" x="-2752" y="1792" width="416" height="64"/>
   <object id="53" x="-2752" y="1536" width="448" height="64"/>
  </objectgroup>
  <objectgroup id="10" name="Secret door">
   <object id="110" x="-704" y="1120" width="128" height="64"/>
  </objectgroup>
 </group>
</map>
